X:1916
L:1/8
M:4/4
K:G
 G>BG>B d>Bd>B | G>GB>G A>DF>D | G/A/B/c/ d>B e>fg>e | d>cB>A B<G G2 :| g>bf>d e>dc>B | 
 c/e/c B/d/B A>DF>D | g>bf>d e>fg>e | d>cB>A B<G G2 | g>bg>d e>dc>B | c/e/c B/d/B A>DF>D | 
 G/A/B/c/ d>B e>fg>e | d>cB>A B>G [B,G]2 ||

